X: 159
T:This Wife of Mine. HA.158
M:C
L:1/8
Q:1/4=160
S:Henry Atkinson's original MS,Hartburn,N'umberland,1694.
O:England
A:Hartburn,Northumberland
H:1/8
Z:vmp.Neil Brookes, Jan.2004
K:Gmin
B>c|d3B G2 (AB)|(cd)(cA) F2 f>g|(ag)(fd) (fd)cA|"="d3B G2:|!
|:A>G|F2f2 f3g|(ag)(fd) c4|d2g2 g2a2|"="g3f d2 (fg)|!
a2c'2 g2a2|"="f3d c2 (f>g)|(ag)(fd) (fd)(cA)|d3B G2:|]
